X:163
T: Der Tod von Basel (2-57), S. 150f
N: K1138
O: Luxemburg
S: KINTZELE, Guillaume: An der Ucht, Bd. 2, Luxemburg 1927]
N: 1138
R: Scherz-, Spottlied]
M: 2/4
L: 1/8
K: F
C | FAAG | GFFA | AAcA | G2z
C | FAAG | GFFA | AAcA | G2z
c | cccc | c2A2 | f2d2 | c2A
c | ccBG | FAcc | ccBG | F2z
c | cccc | c2A2 | f2d2 | c2A
c | ccBG | FAcc | ccBG | F2z

@@@ Tune index: 8217
